X:6
T:Go to Sea Once More
C:Traditional
S:Louis Killen
K:Ddor
M:3/4
L:1/8
A2 | A4 A2 | F2 G2 (3(ABA) | G2 E2 D2 | C3 D E2 | F3 E D2 | E4 C2 | (D6 | D4) F2 |
F2 E2 D2 | E4 c2 | d2 A2 c2 | c4 A2 | A3 G F2 | c4 d2 | (A6 | A4) A2 |
A2 G2 F2| G4 c2 | d2 A2 c2 | c4 A2 | A3 G F2 | c4 d2 | (A6 | A4) FG | 
A3 A A2 | F2 G2 A2 | G2 E2 D2 | C2 D2 E2 | F3 E D2 | E4 C2 | (D6 | D4) c2 |
(c6 | c4) A2 | (G6 | G4) A2 | A2 G2 F2 | D4 A,2 | (C6 | C4) FG |
A2 A2 A2 | F2 G2 A2 | G2 E2 D2 | C2 D2 E2 | F2 E2 D2 | E4 C2 | (D6 | D4) :|
%%textfont Times-Roman 19
%%begintext
At once I landed in Liverpool, I went upon a spree
Me money at last, I spent it fast, got drunk as drunk could be
And when me money was all gone, 'twas then that I wanted more
But a man must be blind to make up his mind to go to sea once more

Once more, once more, to go to sea once more
But a man must be blind to make up his mind to go to sea once more

I spent the night with Angelie, too drunk to roll in bed
Me watch new, and me money too, in the morning with them she'd fled
And as I wandered the streets of town, oh how them whores did roar
Why there goes Jack Sprat, the poor sailor lad, he must go to sea once more

Once more, once more, to go to sea once more
Why there goes Jack Sprat, the poor sailor lad, he must go to sea once more

As I went walking down London road, I met with rapper Brown
I asked him if he'd take me in, he looked at me with a frown
He said last time you was paid off, with me you've chalked no score
But I'll give yas a chance, and I'll take your advance, and I'll send you to sea once more

Once more, once more, to go to sea once more
But I'll give yas a chance, and I'll take your advance, and I'll send you to sea once more

He shipped me aboards of a whaling barque, that was bound for them arctic seas
Where there's ice and snow, and them cold winds blow, why Jamakee rum would freeze
And hardest to bear, I'd no hard weather gear, for I'd spent all me money ashore
Why 'twas then that I wished that I was dead, and could go to sea no more.

Once more, once more, to go to sea once more
Why 'twas then that I wished that I was dead, and could go to sea no more.

Some days we was catching whales me boys and some days we was catching none
With a twenty foot oar in your hand you roll the whole day long
And when them shades of night come you rest on your weary oar
Why your back is so weak, that you never would seek a berth at sea once more

Once more, once more, to go to sea once more
Why your back is so weak, that you never would seek a berth at sea once more

So come all you hard weather sailing men, and listen to me song
When you get back from them long trips, I'll have you not go wrong
Take my advice, drink no strong drink, and go sleeping with no whore
But get married instead, and have all night in, and go to sea no more

Once more, once more, to go to sea once more
But get married instead, and have all night in, and go to sea no more
%%endtext
%%newpage

